src/32x32/places/folder-gruvbox-material-orange-books.svg

<?xml version="1.0" encoding="UTF-8"?>
<svg width="32" height="32" version="1" xmlns="http://www.w3.org/2000/svg">
 <rect x="2" y="11" width="28" height="18" rx="1.4" ry="1.4" opacity=".2"/>
 <path d="m2 22.6c0 0.776 0.6244 1.4 1.4 1.4h25.2c0.776 0 1.4-0.624 1.4-1.4v-15.2c0-0.7756-0.624-1.4-1.4-1.4h-12.6c-2.1 0-2.8-3-4.9-3h-7.7c-0.7756 0-1.4 0.6244-1.4 1.4" fill="#c35e0a"/>
 <rect x="2" y="9" width="28" height="18" rx="1.4" ry="1.4" opacity=".2"/>
 <rect x="4" y="8" width="24" height="11" rx="1.4" ry="1.4" fill="#F5E4C1"/>
 <rect x="2" y="10" width="28" height="18" rx="1.4" ry="1.4" fill="#e78a4e"/>
 <path d="m3.4004 3c-0.7756 0-1.4004 0.6248-1.4004 1.4004v1c0-0.7756 0.6248-1.4004 1.4004-1.4004h7.6996c2.1 0 2.8 3 4.9 3h12.6c0.775 0 1.4 0.6248 1.4 1.4004v-1c0-0.7756-0.625-1.4004-1.4-1.4004h-12.6c-2.1 0-2.8-3-4.9-3z" fill="#F5E4C1" opacity=".1"/>
 <path d="m13 15c-2 0-2 1-2 1v4s0-1 2-1 3 2 3 2v-4s-1-2-3-2zm7 0c-2 0-3 2-3 2v4s1-2 3-2 2 1 2 1v-4s0-1-2-1zm-7 5c-2 0-2 1-2 1v1s0-1 2-1 3 2 3 2v-1s-1-2-3-2zm7 0c-2 0-3.0051 1.9927-3 2v1s1-2 3-2 2 1 2 1v-1s0-1-2-1z" fill="#564135"/>
</svg>

<svg xmlns="http://www.w3.org/2000/svg" width="32" height="32" version="1">
 <rect style="opacity:0.2" width="28" height="18" x="2" y="11" rx="1.4" ry="1.4"/>
 <path style="fill:#c35e0a" d="M 2,22.6 C 2,23.376 2.6244,24 3.4,24 H 28.6 C 29.376,24 30,23.376 30,22.6 V 7.4 C 30,6.6244 29.376,6 28.6,6 H 16 C 13.9,6 13.2,3 11.1,3 H 3.4 C 2.6244,3 2,3.6244 2,4.4"/>
 <rect style="opacity:0.2" width="28" height="18" x="2" y="9" rx="1.4" ry="1.4"/>
 <rect style="fill:#F5E4C1" width="24" height="11" x="4" y="8" rx="1.4" ry="1.4"/>
 <rect style="fill:#e78a4e" width="28" height="18" x="2" y="10" rx="1.4" ry="1.4"/>
 <path style="opacity:0.1;fill:#F5E4C1" d="M 3.4004,3 C 2.6248,3 2,3.6248 2,4.4004 V 5.4004 C 2,4.6248 2.6248,4 3.4004,4 H 11.1 C 13.2,4 13.9,7 16,7 H 28.6 C 29.375,7 30,7.6248 30,8.4004 V 7.4004 C 30,6.6248 29.375,6 28.6,6 H 16 C 13.9,6 13.2,3 11.1,3 Z"/>
 <path style="fill:#564135" d="m 13,15 c -2,0 -2,1 -2,1 v 4 c 0,0 0,-1 2,-1 2,0 3,2 3,2 v -4 c 0,0 -1,-2 -3,-2 z m 7,0 c -2,0 -3,2 -3,2 v 4 c 0,0 1,-2 3,-2 2,0 2,1 2,1 v -4 c 0,0 0,-1 -2,-1 z m -7,5 c -2,0 -2,1 -2,1 v 1 c 0,0 0,-1 2,-1 2,0 3,2 3,2 v -1 c 0,0 -1,-2 -3,-2 z m 7,0 c -2,0 -3.005064,1.992688 -3,2 v 1 c 0,0 1,-2 3,-2 2,0 2,1 2,1 v -1 c 0,0 0,-1 -2,-1 z"/>
</svg>
